X:46091
T: The Minister of Birse
R: strathspey
B: RSCDS 46-9
Z: 2010 John Chambers <jc:trillian.mit.edu>
M: C
L: 1/8
%--------------------
K: D
A, |\
"D"D2 F<A "G"B,2 "A7"C>A, | "D"D2 F>A d>A F>D |\
"Em"G<B "D"F<A "Em"E>F G<E | "Bm"D<d "F#m"A>F "A7"A2 AA, |
"D"D2 F<A "G"B,2 "A7"C>A, | "D"D2 F>A d>A F>D |\
"G"G<B "B7"F<A "Em"E>F G<E | "D"D<d A>F "A7"A2 (3ABc |]
"D"d>e f>d A<F D>F | "Em"E<e e>d "A7"cA Bc |\
"D"d>e f>d A<F D>F | "A"E<A "E7"A>^G "A"A2 (3ABc |
"D"d>e f>d A<F D>F | "G"G<g "Em"g>f "A"e>A B>c |\
"Bm"d<f "G"B<d "D"A>B A<F | "Em"E>D "A7"E<F "D"D2 D |]
